icons/calendar-two-color.svg

<?xml version="1.0" encoding="UTF-8"?><svg xmlns="http://www.w3.org/2000/svg" viewBox="0 0 50 50"><g id="uuid-9364b441-18d9-43d2-bde8-e9a379326ee0"><g><polygon points="44.52 9.91 44.52 9.88 6.48 9.88 6.48 9.91 2.97 9.91 2.97 15.74 49.53 15.74 49.53 9.91 44.52 9.91" fill="#ffcd00"/><rect x="7.98" y="21.47" width="36.54" height="20.69" fill="#ffcd00"/><path d="M48.53,7.41h-7.16v-1.51c0-1.28-1.04-2.32-2.32-2.32s-2.32,1.04-2.32,2.32v1.51H13.21v-1.51c0-1.28-1.04-2.32-2.32-2.32s-2.32,1.04-2.32,2.32v1.51H.97c-.28,0-.5,.22-.5,.5V45.93c0,.28,.22,.5,.5,.5H48.53c.28,0,.5-.22,.5-.5V7.91c0-.28-.22-.5-.5-.5Zm-9.48-2.84c.73,0,1.32,.59,1.32,1.32v2.66c0,.73-.59,1.32-1.32,1.32s-1.32-.59-1.32-1.32v-2.66c0-.73,.59-1.32,1.32-1.32Zm-28.16,0c.73,0,1.32,.59,1.32,1.32v2.66c0,.73-.59,1.32-1.32,1.32s-1.32-.59-1.32-1.32v-2.66c0-.73,.59-1.32,1.32-1.32Zm-2.32,3.84v.15c0,1.28,1.04,2.32,2.32,2.32s2.32-1.04,2.32-2.32v-.15h23.51v.15c0,1.28,1.04,2.32,2.32,2.32s2.32-1.04,2.32-2.32v-.15h6.66v5.84H1.47v-5.84h7.09ZM1.47,45.43V15.24H48.03v30.19H1.47Z"/><path d="M43.52,18.97H5.98c-.28,0-.5,.22-.5,.5v21.69c0,.28,.22,.5,.5,.5H43.52c.28,0,.5-.22,.5-.5V19.47c0-.28-.22-.5-.5-.5ZM6.48,27.31h6.52v6.01H6.48v-6.01Zm7.52,0h6.5v6.01h-6.5v-6.01Zm14-1h-6.5v-6.34h6.5v6.34Zm1-6.34h6.5v6.34h-6.5v-6.34Zm-1,7.34v6.01h-6.5v-6.01h6.5Zm-7.5-1h-6.5v-6.34h6.5v6.34Zm0,8.01v6.34h-6.5v-6.34h6.5Zm1,0h6.5v6.34h-6.5v-6.34Zm7.5,0h6.5v6.34h-6.5v-6.34Zm0-1v-6.01h6.5v6.01h-6.5Zm7.5-6.01h6.51v6.01h-6.51v-6.01Zm6.51-1h-6.51v-6.34h6.51v6.34Zm-30.02-6.34v6.34H6.48v-6.34h6.52Zm-6.52,14.35h6.52v6.34H6.48v-6.34Zm30.02,6.34v-6.34h6.51v6.34h-6.51Z"/></g></g><g id="uuid-517c7d5a-df34-46b1-af56-7a90eea0a61c"><text transform="translate(-.31 55.01)" font-family="Roboto-Regular, Roboto" font-size="6"><tspan x="0" y="0">calendar</tspan></text></g></svg>

<svg xmlns="http://www.w3.org/2000/svg" viewBox="0 0 50 50"><g id="bd16aa3a-7209-4afb-90d0-691ee0afdf34" data-name="ICONS"><polygon points="44.52 9.9 44.52 9.88 6.48 9.88 6.48 9.9 2.97 9.9 2.97 15.74 49.53 15.74 49.53 9.9 44.52 9.9" fill="#fdd600"/><rect x="7.98" y="21.47" width="36.54" height="20.69" fill="#fdd600"/><path d="M48.53,7.41H41.37V5.89a2.33,2.33,0,0,0-4.65,0V7.41H13.21V5.89a2.33,2.33,0,0,0-4.65,0V7.41H1a.5.5,0,0,0-.5.5v38a.5.5,0,0,0,.5.5H48.53a.5.5,0,0,0,.5-.5v-38A.5.5,0,0,0,48.53,7.41ZM39.05,4.57a1.32,1.32,0,0,1,1.32,1.32V8.56a1.33,1.33,0,0,1-2.65,0V5.89A1.32,1.32,0,0,1,39.05,4.57Zm-28.16,0a1.32,1.32,0,0,1,1.32,1.32V8.56a1.33,1.33,0,0,1-2.65,0V5.89A1.33,1.33,0,0,1,10.89,4.57ZM8.56,8.41v.15a2.33,2.33,0,0,0,4.65,0V8.41H36.72v.15a2.33,2.33,0,0,0,4.65,0V8.41H48v5.83H1.47V8.41Zm-7.09,37V15.24H48V45.43Z" fill="#231f20"/><path d="M43.52,19H6a.5.5,0,0,0-.5.5V41.16a.5.5,0,0,0,.5.5H43.52a.5.5,0,0,0,.5-.5V19.47A.5.5,0,0,0,43.52,19Zm-37,8.34H13v6H6.48Zm7.52,0h6.5v6H14Zm14-1H21.5V20H28ZM29,20h6.5v6.34H29Zm-1,7.34v6H21.5v-6Zm-7.5-1H14V20h6.5Zm0,8v6.34H14V34.32Zm1,0H28v6.34H21.5Zm7.5,0h6.5v6.34H29Zm0-1v-6h6.5v6Zm7.5-6H43v6H36.5Zm6.52-1H36.5V20H43ZM13,20v6.34H6.48V20ZM6.48,34.32H13v6.34H6.48Zm30,6.34V34.32H43v6.34Z" fill="#231f20"/></g><g id="f18b0a9e-92d6-4bab-ba2a-ff54929900cb" data-name="LABELS"><text transform="translate(-0.31 55.01)" font-size="6" fill="#231f20" font-family="Roboto-Regular, Roboto">calendar</text></g></svg>
